X:2
T:Ancient sports of the glen, The
T:Sealg a's S\`ugradh nan gleann
R:Slow Air
S:Simon Fraser Collection
N:No.221
O:Scottish
M:3/4
L:1/8
Q:1/4=90
K:D
d>c|(BA) F2A2|(f2 [ce]) z B>c|d2F2A2|B3z d>c|BA F2A2|(f2 [ce])z B>c|
d2F2A2|B3z||d>e|f2d2c2|(e2 [Ac])z d<e|f2d2B2|[A3c3]z a>e|f2B2c2|
([F2A2] B)z d>c|(BA) F2A2|B3 z||

